;FLAVOR:UltiGCode
;TIME:4451
;MATERIAL:8160
;MATERIAL2:0
;NOZZLE_DIAMETER:0.4
;Generated with Cura_SteamEngine 3.0.4
M82 ; absolute extrusion mode

;LAYER_COUNT:86
;LAYER:0
M107
G0 F4500 X84.09 Y85.402 Z0.27
;TYPE:SKIRT
G1 F1800 X85.412 Y84.081 E0.17661
G1 X85.77 Y83.745 E0.22301
G1 X87.182 Y82.5 E0.4009
G1 X87.561 Y82.186 E0.44741
G1 X89.058 Y81.024 E0.6265
G1 X89.465 Y80.728 E0.67405
G1 X91.014 Y79.677 E0.85095
G1 X91.421 Y79.419 E0.89649
G1 X93.046 Y78.456 E1.07499
G1 X93.486 Y78.214 E1.12244
G1 X95.16 Y77.361 E1.29999
G1 X95.611 Y77.149 E1.34708
G1 X97.349 Y76.398 E1.526
G1 X97.807 Y76.217 E1.57254
G1 X99.575 Y75.581 E1.7501
G1 X100.041 Y75.43 E1.79639
G1 X101.849 Y74.904 E1.97433
G1 X102.336 Y74.779 E2.02184
G1 X104.167 Y74.371 E2.19911
G1 X104.65 Y74.279 E2.24558
G1 X106.522 Y73.983 E2.42468
G1 X107.008 Y73.921 E2.47098
G1 X108.874 Y73.744 E2.64811
G1 X109.372 Y73.713 E2.69526
G1 X111.256 Y73.654 E2.87338
G1 X111.752 Y73.654 E2.92026
G1 X113.638 Y73.714 E3.09857
G1 X114.132 Y73.745 E3.14535
G1 X115.998 Y73.922 E3.32248
G1 X116.485 Y73.984 E3.36887
G1 X118.356 Y74.28 E3.54788
G1 X118.839 Y74.372 E3.59434
G1 X120.669 Y74.78 E3.77152
G1 X121.155 Y74.905 E3.81895
G1 X122.966 Y75.432 E3.99718
G1 X123.434 Y75.584 E4.04368
G1 X125.2 Y76.22 E4.22106
G1 X125.663 Y76.403 E4.26811
G1 X127.401 Y77.156 E4.4471
G1 X127.842 Y77.364 E4.49318
G1 X129.514 Y78.215 E4.67047
G1 X129.953 Y78.456 E4.7178
G1 X131.58 Y79.419 E4.89646
G1 X131.994 Y79.682 E4.94281
G1 X133.541 Y80.733 E5.11955
G1 X133.946 Y81.027 E5.16685
G1 X135.445 Y82.191 E5.34619
G1 X135.823 Y82.504 E5.39257
G1 X137.235 Y83.749 E5.57047
G1 X137.6 Y84.092 E5.6178
G1 X138.92 Y85.414 E5.79434
G1 X139.252 Y85.767 E5.84014
G1 X140.498 Y87.179 E6.01809
G1 X140.814 Y87.561 E6.06494
G1 X141.976 Y89.058 E6.24403
G1 X142.272 Y89.465 E6.29158
G1 X143.323 Y91.014 E6.46848
G1 X143.581 Y91.421 E6.51402
G1 X144.547 Y93.051 E6.69307
G1 X144.79 Y93.494 E6.74082
G1 X145.64 Y95.164 E6.9179
G1 X145.85 Y95.611 E6.96457
G1 X146.601 Y97.348 E7.1434
G1 X146.781 Y97.803 E7.18964
G1 X147.415 Y99.562 E7.36634
G1 X147.569 Y100.034 E7.41325
G1 X148.095 Y101.844 E7.59137
G1 X148.219 Y102.327 E7.6385
G1 X148.629 Y104.164 E7.81637
G1 X148.721 Y104.649 E7.86302
G1 X149.017 Y106.521 E8.04212
G1 X149.079 Y107.006 E8.08832
G1 X149.256 Y108.868 E8.26508
G1 X149.287 Y109.366 E8.31223
G1 X149.346 Y111.249 E8.49026
G1 X149.346 Y111.746 E8.53722
G1 X149.286 Y113.638 E8.71611
G1 X149.255 Y114.132 E8.76288
G1 X149.078 Y115.998 E8.94001
G1 X149.016 Y116.485 E8.9864
G1 X148.72 Y118.356 E9.16541
G1 X148.628 Y118.839 E9.21188
G1 X148.221 Y120.664 E9.38858
G1 X148.097 Y121.15 E9.43597
G1 X147.569 Y122.965 E9.6146
G1 X147.417 Y123.432 E9.66101
G1 X146.781 Y125.199 E9.83848
G1 X146.598 Y125.659 E9.88526
G1 X145.846 Y127.397 E10.06422
G1 X145.636 Y127.844 E10.11089
G1 X144.787 Y129.511 E10.28768
G1 X144.547 Y129.948 E10.33479
G1 X143.581 Y131.58 E10.51401
G1 X143.318 Y131.994 E10.56036
G1 X142.267 Y133.541 E10.7371
G1 X141.973 Y133.946 E10.78439
G1 X140.809 Y135.445 E10.96374
G1 X140.496 Y135.823 E11.01011
G1 X139.253 Y137.233 E11.18774
G1 X138.912 Y137.596 E11.23481
G1 X137.588 Y138.919 E11.41169
G1 X137.23 Y139.255 E11.45808
G1 X135.818 Y140.5 E11.63598
G1 X135.439 Y140.814 E11.68249
G1 X133.942 Y141.976 E11.86157
G1 X133.535 Y142.272 E11.90913
G1 X131.986 Y143.323 E12.08602
G1 X131.579 Y143.581 E12.13156
G1 X129.954 Y144.544 E12.31006
G1 X129.514 Y144.786 E12.35752
G1 X127.84 Y145.639 E12.53507
G1 X127.389 Y145.851 E12.58216
G1 X125.651 Y146.602 E12.76108
G1 X125.193 Y146.783 E12.80762
G1 X123.425 Y147.419 E12.98517
G1 X122.959 Y147.57 E13.03146
G1 X121.151 Y148.096 E13.2094
G1 X120.664 Y148.221 E13.25692
G1 X118.833 Y148.629 E13.43419
G1 X118.35 Y148.721 E13.48065
G1 X116.478 Y149.017 E13.65976
G1 X115.992 Y149.079 E13.70606
G1 X114.126 Y149.256 E13.88318
G1 X113.628 Y149.287 E13.93034
G1 X111.744 Y149.346 E14.10846
G1 X111.248 Y149.346 E14.15533
G1 X109.362 Y149.286 E14.33365
G1 X108.868 Y149.255 E14.38042
G1 X107.002 Y149.078 E14.55755
G1 X106.515 Y149.016 E14.60395
G1 X104.644 Y148.72 E14.78295
G1 X104.161 Y148.628 E14.82942
G1 X102.331 Y148.22 E15.0066
G1 X101.845 Y148.095 E15.05402
G1 X100.034 Y147.568 E15.23226
G1 X99.566 Y147.416 E15.27876
G1 X97.8 Y146.78 E15.45614
G1 X97.337 Y146.597 E15.50319
G1 X95.599 Y145.844 E15.68218
G1 X95.158 Y145.636 E15.72826
G1 X93.486 Y144.785 E15.90555
G1 X93.049 Y144.545 E15.95266
G1 X91.421 Y143.582 E16.13141
G1 X91.003 Y143.317 E16.17818
G1 X89.457 Y142.266 E16.35484
G1 X89.054 Y141.973 E16.40193
G1 X87.555 Y140.809 E16.58127
G1 X87.177 Y140.496 E16.62765
G1 X85.765 Y139.251 E16.80555
G1 X85.402 Y138.91 E16.85261
G1 X84.081 Y137.588 E17.02922
G1 X83.745 Y137.23 E17.07562
G1 X82.5 Y135.818 E17.25351
G1 X82.187 Y135.439 E17.29997
G1 X81.024 Y133.941 E17.47918
G1 X80.727 Y133.533 E17.52687
G1 X79.677 Y131.985 E17.70363
G1 X79.42 Y131.58 E17.74896
G1 X78.452 Y129.947 E17.92836
G1 X78.209 Y129.505 E17.97602
G1 X77.36 Y127.838 E18.15281
G1 X77.147 Y127.386 E18.20002
G1 X76.396 Y125.647 E18.37903
G1 X76.215 Y125.19 E18.42548
G1 X75.58 Y123.424 E18.60283
G1 X75.429 Y122.957 E18.64921
G1 X74.902 Y121.144 E18.82763
G1 X74.778 Y120.659 E18.87494
G1 X74.371 Y118.833 E19.05173
G1 X74.279 Y118.35 E19.09819
G1 X73.983 Y116.478 E19.27729
G1 X73.921 Y115.991 E19.32369
G1 X73.744 Y114.124 E19.50091
G1 X73.713 Y113.628 E19.54787
G1 X73.654 Y111.751 E19.72534
G1 X73.654 Y111.255 E19.77221
G1 X73.714 Y109.359 E19.95147
G1 X73.745 Y108.863 E19.99843
G1 X73.922 Y107.001 E20.17519
G1 X73.984 Y106.515 E20.22148
G1 X74.28 Y104.644 E20.40049
G1 X74.372 Y104.161 E20.44696
G1 X74.779 Y102.336 E20.62366
G1 X74.903 Y101.852 E20.67087
G1 X75.432 Y100.032 E20.84998
G1 X75.585 Y99.56 E20.89687
G1 X76.22 Y97.798 E21.07386
G1 X76.402 Y97.339 E21.12052
G1 X77.155 Y95.6 E21.2996
G1 X77.364 Y95.157 E21.34589
G1 X78.212 Y93.491 E21.52255
G1 X78.453 Y93.052 E21.56987
G1 X79.419 Y91.42 E21.74909
G1 X79.682 Y91.006 E21.79544
G1 X80.733 Y89.459 E21.97218
G1 X81.027 Y89.054 E22.01947
G1 X82.191 Y87.555 E22.19882
G1 X82.504 Y87.177 E22.2452
G1 X83.749 Y85.765 E22.42309
G1 X84.09 Y85.402 E22.47016
G0 F4500 X84.337 Y85.65
G1 F1800 X85.659 Y84.329 E22.64677
G1 X86.001 Y84.008 E22.69109
G1 X87.413 Y82.763 E22.86899
G1 X87.776 Y82.463 E22.91349
G1 X89.273 Y81.301 E23.09257
G1 X89.662 Y81.018 E23.13803
G1 X91.211 Y79.967 E23.31493
G1 X91.6 Y79.72 E23.35847
G1 X93.225 Y78.757 E23.53697
G1 X93.645 Y78.526 E23.58227
G1 X95.319 Y77.673 E23.75982
G1 X95.75 Y77.47 E23.80484
G1 X97.488 Y76.719 E23.98376
G1 X97.926 Y76.546 E24.02826
G1 X99.694 Y75.91 E24.20582
G1 X100.139 Y75.766 E24.25002
G1 X101.947 Y75.24 E24.42796
G1 X102.412 Y75.12 E24.47334
G1 X104.243 Y74.712 E24.65061
G1 X104.705 Y74.624 E24.69506
G1 X106.577 Y74.328 E24.87416
G1 X107.041 Y74.27 E24.91835
G1 X108.907 Y74.093 E25.09548
G1 X109.382 Y74.063 E25.14045
G1 X111.266 Y74.004 E25.31858
G1 X111.741 Y74.004 E25.36346
G1 X113.627 Y74.064 E25.54178
G1 X114.099 Y74.094 E25.58648
G1 X115.965 Y74.271 E25.7636
G1 X116.43 Y74.329 E25.80789
G1 X118.301 Y74.625 E25.9869
G1 X118.763 Y74.713 E26.03134
G1 X120.593 Y75.121 E26.20852
G1 X121.058 Y75.241 E26.2539
G1 X122.869 Y75.768 E26.43214
G1 X123.316 Y75.913 E26.47655
G1 X125.082 Y76.549 E26.65393
G1 X125.524 Y76.724 E26.69885
G1 X127.262 Y77.477 E26.87785
G1 X127.683 Y77.676 E26.92185
G1 X129.355 Y78.527 E27.09914
G1 X129.775 Y78.757 E27.1444
G1 X131.402 Y79.72 E27.32306
G1 X131.798 Y79.972 E27.36742
G1 X133.345 Y81.023 E27.54416
G1 X133.731 Y81.303 E27.58922
G1 X135.23 Y82.467 E27.76857
G1 X135.592 Y82.767 E27.813
G1 X137.004 Y84.012 E27.99089
G1 X137.352 Y84.339 E28.03602
G1 X138.672 Y85.661 E28.21256
G1 X138.989 Y85.999 E28.25635
G1 X140.235 Y87.411 E28.43431
G1 X140.537 Y87.776 E28.47908
G1 X141.699 Y89.273 E28.65816
G1 X141.982 Y89.662 E28.70362
G1 X143.033 Y91.211 E28.88051
G1 X143.28 Y91.6 E28.92406
G1 X144.246 Y93.23 E29.10311
G1 X144.478 Y93.653 E29.1487
G1 X145.328 Y95.323 E29.32578
G1 X145.529 Y95.75 E29.37038
G1 X146.28 Y97.487 E29.54921
G1 X146.452 Y97.921 E29.59333
G1 X147.086 Y99.68 E29.77002
G1 X147.233 Y100.132 E29.81494
G1 X147.759 Y101.942 E29.99306
G1 X147.877 Y102.403 E30.03803
G1 X148.287 Y104.24 E30.2159
G1 X148.376 Y104.704 E30.26055
G1 X148.672 Y106.576 E30.43965
G1 X148.73 Y107.039 E30.48374
G1 X148.907 Y108.901 E30.6605
G1 X148.937 Y109.377 E30.70557
G1 X148.996 Y111.26 E30.8836
G1 X148.996 Y111.735 E30.92849
G1 X148.936 Y113.627 E31.10737
G1 X148.906 Y114.099 E31.15206
G1 X148.729 Y115.965 E31.32919
G1 X148.671 Y116.43 E31.37347
G1 X148.375 Y118.301 E31.55248
G1 X148.287 Y118.763 E31.59693
G1 X147.88 Y120.588 E31.77363
G1 X147.76 Y121.052 E31.81892
G1 X147.232 Y122.867 E31.99754
G1 X147.087 Y123.313 E32.04186
G1 X146.451 Y125.08 E32.21933
G1 X146.277 Y125.52 E32.26404
G1 X145.525 Y127.258 E32.443
G1 X145.324 Y127.685 E32.4876
G1 X144.475 Y129.352 E32.66438
G1 X144.246 Y129.77 E32.70942
G1 X143.28 Y131.402 E32.88864
G1 X143.028 Y131.798 E32.933
G1 X141.977 Y133.345 E33.10974
G1 X141.697 Y133.731 E33.1548
G1 X140.533 Y135.23 E33.33415
G1 X140.234 Y135.591 E33.37844
G1 X138.991 Y137.001 E33.55607
G1 X138.665 Y137.348 E33.60107
G1 X137.341 Y138.671 E33.77794
G1 X136.999 Y138.992 E33.82227
G1 X135.587 Y140.237 E34.00016
G1 X135.224 Y140.537 E34.04466
G1 X133.727 Y141.699 E34.22375
G1 X133.338 Y141.982 E34.26921
G1 X131.789 Y143.033 E34.4461
G1 X131.4 Y143.28 E34.48965
G1 X129.775 Y144.243 E34.66815
G1 X129.355 Y144.474 E34.71345
G1 X127.681 Y145.327 E34.89099
G1 X127.25 Y145.53 E34.93601
G1 X125.512 Y146.281 E35.11493
G1 X125.074 Y146.454 E35.15943
G1 X123.306 Y147.09 E35.33699
G1 X122.861 Y147.234 E35.38119
G1 X121.053 Y147.76 E35.55913
G1 X120.588 Y147.88 E35.60451
G1 X118.757 Y148.288 E35.78179
G1 X118.295 Y148.376 E35.82623
G1 X116.423 Y148.672 E36.00533
G1 X115.959 Y148.73 E36.04952
G1 X114.093 Y148.907 E36.22665
G1 X113.618 Y148.937 E36.27163
G1 X111.734 Y148.996 E36.44975
G1 X111.259 Y148.996 E36.49464
G1 X109.373 Y148.936 E36.67296
G1 X108.901 Y148.906 E36.71765
G1 X107.035 Y148.729 E36.89478
G1 X106.57 Y148.671 E36.93906
G1 X104.699 Y148.375 E37.11807
G1 X104.237 Y148.287 E37.16251
G1 X102.407 Y147.879 E37.3397
G1 X101.942 Y147.759 E37.38508
G1 X100.131 Y147.232 E37.56332
G1 X99.684 Y147.087 E37.60772
G1 X97.918 Y146.451 E37.7851
G1 X97.476 Y146.276 E37.83003
G1 X95.738 Y145.523 E38.00902
G1 X95.317 Y145.324 E38.05303
G1 X93.645 Y144.473 E38.23032
G1 X93.227 Y144.244 E38.27536
G1 X91.599 Y143.281 E38.45411
G1 X91.199 Y143.027 E38.49888
G1 X89.653 Y141.976 E38.67554
G1 X89.269 Y141.697 E38.7204
G1 X87.77 Y140.533 E38.89975
G1 X87.408 Y140.233 E38.94417
G1 X85.996 Y138.988 E39.12207
G1 X85.65 Y138.663 E39.16693
G1 X84.329 Y137.341 E39.34354
G1 X84.008 Y136.999 E39.38786
G1 X82.763 Y135.587 E39.56576
G1 X82.463 Y135.225 E39.61019
G1 X81.3 Y133.727 E39.7894
G1 X81.016 Y133.336 E39.83507
G1 X79.966 Y131.788 E40.01184
G1 X79.721 Y131.401 E40.05512
G1 X78.753 Y129.768 E40.23451
G1 X78.521 Y129.346 E40.28002
G1 X77.672 Y127.679 E40.45681
G1 X77.469 Y127.247 E40.50191
G1 X76.718 Y125.508 E40.68092
G1 X76.545 Y125.071 E40.72533
G1 X75.91 Y123.305 E40.90268
G1 X75.765 Y122.859 E40.947
G1 X75.238 Y121.046 E41.12542
G1 X75.119 Y120.583 E41.17059
G1 X74.712 Y118.757 E41.34739
G1 X74.624 Y118.295 E41.39183
G1 X74.328 Y116.423 E41.57093
G1 X74.27 Y115.958 E41.61521
G1 X74.093 Y114.091 E41.79244
G1 X74.063 Y113.617 E41.83732
G1 X74.004 Y111.74 E42.01478
G1 X74.004 Y111.266 E42.05958
G1 X74.064 Y109.37 E42.23884
G1 X74.094 Y108.896 E42.28372
G1 X74.271 Y107.034 E42.46047
G1 X74.329 Y106.57 E42.50466
G1 X74.625 Y104.699 E42.68367
G1 X74.713 Y104.237 E42.72812
G1 X75.12 Y102.412 E42.90481
G1 X75.239 Y101.95 E42.9499
G1 X75.768 Y100.13 E43.12901
G1 X75.915 Y99.679 E43.17383
G1 X76.55 Y97.917 E43.35082
G1 X76.724 Y97.478 E43.39545
G1 X77.477 Y95.739 E43.57453
G1 X77.676 Y95.316 E43.61871
G1 X78.524 Y93.65 E43.79536
G1 X78.754 Y93.23 E43.84062
G1 X79.72 Y91.598 E44.01983
G1 X79.972 Y91.202 E44.06419
G1 X81.023 Y89.655 E44.24093
G1 X81.303 Y89.269 E44.28599
G1 X82.467 Y87.77 E44.46534
G1 X82.767 Y87.408 E44.50977
G1 X84.012 Y85.996 E44.68766
G1 X84.337 Y85.65 E44.73252
G0 F4500 X84.584 Y85.898
G1 F1800 X85.906 Y84.577 E44.90913
G1 X86.233 Y84.27 E44.95152
G1 X87.645 Y83.025 E45.12941
G1 X87.99 Y82.739 E45.17176
G1 X89.487 Y81.577 E45.35084
G1 X89.859 Y81.308 E45.39423
G1 X91.408 Y80.257 E45.57112
G1 X91.778 Y80.021 E45.61259
G1 X93.403 Y79.058 E45.7911
G1 X93.803 Y78.838 E45.83424
G1 X95.477 Y77.985 E46.01178
G1 X95.889 Y77.792 E46.05478
G1 X97.627 Y77.041 E46.23369
G1 X98.044 Y76.876 E46.27607
G1 X99.812 Y76.24 E46.45363
G1 X100.237 Y76.102 E46.49586
G1 X102.045 Y75.576 E46.6738
G1 X102.488 Y75.462 E46.71702
G1 X104.319 Y75.054 E46.8943
G1 X104.759 Y74.97 E46.93663
G1 X106.631 Y74.674 E47.11573
G1 X107.074 Y74.618 E47.15793
G1 X108.94 Y74.441 E47.33506
G1 X109.393 Y74.413 E47.37795
G1 X111.277 Y74.354 E47.55607
G1 X111.73 Y74.354 E47.59888
G1 X113.616 Y74.414 E47.7772
G1 X114.066 Y74.442 E47.8198
G1 X115.932 Y74.619 E47.99693
G1 X116.375 Y74.675 E48.03913
G1 X118.246 Y74.971 E48.21814
G1 X118.686 Y75.055 E48.26047
G1 X120.516 Y75.463 E48.43765
G1 X120.96 Y75.577 E48.48097
G1 X122.771 Y76.104 E48.65921
G1 X123.197 Y76.242 E48.70152
G1 X124.963 Y76.878 E48.8789
G1 X125.384 Y77.045 E48.9217
G1 X127.122 Y77.798 E49.1007
G1 X127.525 Y77.988 E49.1428
G1 X129.197 Y78.839 E49.32009
G1 X129.597 Y79.058 E49.36319
G1 X131.224 Y80.021 E49.54185
G1 X131.601 Y80.261 E49.58409
G1 X133.148 Y81.312 E49.76082
G1 X133.517 Y81.58 E49.80392
G1 X135.016 Y82.744 E49.98327
G1 X135.36 Y83.029 E50.02548
G1 X136.772 Y84.274 E50.20338
G1 X137.104 Y84.586 E50.24643
G1 X138.424 Y85.908 E50.42298
G1 X138.727 Y86.231 E50.46483
G1 X139.973 Y87.643 E50.64279
G1 X140.261 Y87.99 E50.6854
G1 X141.423 Y89.487 E50.86448
G1 X141.692 Y89.859 E50.90787
G1 X142.743 Y91.408 E51.08476
G1 X142.978 Y91.778 E51.12618
G1 X143.944 Y93.408 E51.30523
G1 X144.166 Y93.811 E51.34871
G1 X145.016 Y95.481 E51.5258
G1 X145.208 Y95.889 E51.56841
G1 X145.959 Y97.626 E51.74724
G1 X146.123 Y98.04 E51.78932
G1 X146.757 Y99.799 E51.96601
G1 X146.897 Y100.23 E52.00884
G1 X147.423 Y102.04 E52.18696
G1 X147.536 Y102.479 E52.2298
G1 X147.946 Y104.316 E52.40766
G1 X148.03 Y104.758 E52.45018
G1 X148.326 Y106.63 E52.62928
G1 X148.382 Y107.072 E52.67139
G1 X148.559 Y108.934 E52.84814
G1 X148.587 Y109.388 E52.89112
G1 X148.646 Y111.271 E53.06915
G1 X148.646 Y111.723 E53.11187
G1 X148.586 Y113.615 E53.29075
G1 X148.558 Y114.066 E53.33345
G1 X148.381 Y115.932 E53.51058
G1 X148.325 Y116.375 E53.55278
G1 X148.029 Y118.246 E53.73179
G1 X147.945 Y118.687 E53.77421
G1 X147.538 Y120.512 E53.95091
G1 X147.424 Y120.954 E53.99404
G1 X146.896 Y122.769 E54.17267
G1 X146.758 Y123.195 E54.21499
G1 X146.122 Y124.962 E54.39246
G1 X145.956 Y125.381 E54.43505
G1 X145.204 Y127.119 E54.614
G1 X145.013 Y127.526 E54.65649
G1 X144.164 Y129.193 E54.83327
G1 X143.944 Y129.592 E54.87633
G1 X142.978 Y131.224 E55.05555
G1 X142.739 Y131.601 E55.09773
G1 X141.688 Y133.148 E55.27447
G1 X141.42 Y133.517 E55.31757
G1 X140.256 Y135.016 E55.49691
G1 X139.971 Y135.36 E55.53913
G1 X138.728 Y136.77 E55.71676
G1 X138.418 Y137.1 E55.75954
G1 X137.094 Y138.423 E55.93642
G1 X136.767 Y138.73 E55.97881
G1 X135.355 Y139.975 E56.1567
G1 X135.01 Y140.261 E56.19905
G1 X133.513 Y141.423 E56.37813
G1 X133.141 Y141.692 E56.42152
G1 X131.592 Y142.743 E56.59841
G1 X131.222 Y142.979 E56.63988
G1 X129.597 Y143.942 E56.81838
G1 X129.197 Y144.162 E56.86152
G1 X127.523 Y145.015 E57.03907
G1 X127.111 Y145.208 E57.08207
G1 X125.373 Y145.959 E57.26098
G1 X124.956 Y146.124 E57.30336
G1 X123.188 Y146.76 E57.48092
G1 X122.763 Y146.898 E57.52315
G1 X120.955 Y147.424 E57.70109
G1 X120.512 Y147.538 E57.74431
G1 X118.681 Y147.946 E57.92159
G1 X118.241 Y148.03 E57.96392
G1 X116.369 Y148.326 E58.14302
G1 X115.926 Y148.382 E58.18522
G1 X114.06 Y148.559 E58.36235
G1 X113.607 Y148.587 E58.40524
G1 X111.723 Y148.646 E58.58336
G1 X111.27 Y148.646 E58.62617
G1 X109.384 Y148.586 E58.80449
G1 X108.934 Y148.558 E58.84709
